polaris-icons/icons/new-icons/MoneyMinor.svg

<svg width="20" height="20" viewBox="0 0 20 20" fill="none" xmlns="http://www.w3.org/2000/svg">
<path fill-rule="evenodd" clip-rule="evenodd" d="M14.0804 4H8.66956C8.13542 3.99999 7.68956 3.99998 7.32533 4.02974C6.94544 4.06078 6.58879 4.12789 6.25152 4.29973C5.73408 4.56339 5.31338 4.98408 5.04973 5.50153C4.87789 5.83879 4.81077 6.19545 4.77974 6.57533C4.77471 6.6369 4.77053 6.7008 4.76705 6.76706C4.70079 6.77053 4.6369 6.77471 4.57533 6.77974C4.19545 6.81078 3.83879 6.87789 3.50153 7.04973C2.98408 7.31339 2.56338 7.73408 2.29973 8.25153C2.12789 8.58879 2.06078 8.94545 2.02974 9.32533C1.99998 9.68956 1.99999 10.1354 2 10.6696V12.0804C1.99999 12.6146 1.99998 13.0604 2.02974 13.4247C2.06078 13.8046 2.12789 14.1612 2.29973 14.4985C2.56338 15.0159 2.98408 15.4366 3.50153 15.7003C3.83879 15.8721 4.19545 15.9392 4.57533 15.9703C4.93955 16 5.38538 16 5.91951 16H11.5805C12.1146 16 12.5605 16 12.9247 15.9703C13.3046 15.9392 13.6612 15.8721 13.9985 15.7003C14.5159 15.4366 14.9366 15.0159 15.2003 14.4985C15.3721 14.1612 15.4392 13.8046 15.4703 13.4247C15.4757 13.3576 15.4802 13.2878 15.4839 13.2151C15.8417 13.1819 16.1788 13.1132 16.4985 12.9503C17.0159 12.6866 17.4366 12.2659 17.7003 11.7485C17.8721 11.4112 17.9392 11.0546 17.9703 10.6747C18 10.3105 18 9.86465 18 9.33054V7.91955C18 7.38544 18 6.93954 17.9703 6.57533C17.9392 6.19545 17.8721 5.83879 17.7003 5.50153C17.4366 4.98408 17.0159 4.56339 16.4985 4.29973C16.1612 4.12789 15.8046 4.06078 15.4247 4.02974C15.0604 3.99998 14.6146 3.99999 14.0804 4ZM10.9861 14.5H11.55C12.1224 14.5 12.5066 14.4994 12.8025 14.4752C13.0896 14.4518 13.2269 14.4099 13.3175 14.3638C13.5527 14.2439 13.7439 14.0527 13.8638 13.8175C13.9099 13.7269 13.9518 13.5896 13.9752 13.3025C13.9994 13.0066 14 12.6224 14 12.05V10.7C14 10.1276 13.9994 9.74336 13.9752 9.44748C13.9518 9.16036 13.9099 9.02307 13.8638 8.93251C13.7439 8.69731 13.5527 8.50608 13.3175 8.38624C13.2269 8.3401 13.0896 8.29822 12.8025 8.27476C12.5066 8.25058 12.1224 8.25 11.55 8.25H10.825C11.395 9.06912 11.75 10.2224 11.75 11.5C11.75 12.6525 11.4611 13.7039 10.9861 14.5ZM6.67501 8.25C6.10495 9.06912 5.75 10.2224 5.75 11.5C5.75 12.6525 6.03885 13.7039 6.51389 14.5H5.95C5.37757 14.5 4.99336 14.4994 4.69748 14.4752C4.41036 14.4518 4.27307 14.4099 4.18251 14.3638C3.94731 14.2439 3.75608 14.0527 3.63624 13.8175C3.5901 13.7269 3.54822 13.5896 3.52476 13.3025C3.50058 13.0066 3.5 12.6224 3.5 12.05V10.7C3.5 10.1276 3.50058 9.74336 3.52476 9.44748C3.54822 9.16036 3.5901 9.02307 3.63624 8.93251C3.75608 8.69731 3.94731 8.50608 4.18251 8.38624C4.27307 8.3401 4.41036 8.29822 4.69748 8.27476C4.99336 8.25058 5.37757 8.25 5.95 8.25H6.67501ZM8.75 14.5C8.57915 14.5 8.24086 14.3961 7.87675 13.8499C7.51964 13.3143 7.25 12.4878 7.25 11.5C7.25 10.5122 7.51964 9.68575 7.87675 9.15007C8.24086 8.60391 8.57915 8.5 8.75 8.5C8.92085 8.5 9.25914 8.60391 9.62325 9.15007C9.98036 9.68575 10.25 10.5122 10.25 11.5C10.25 12.4878 9.98036 13.3143 9.62325 13.8499C9.25914 14.3961 8.92085 14.5 8.75 14.5ZM11.5804 6.75H6.27077C6.27202 6.73218 6.27335 6.71468 6.27476 6.69748C6.29821 6.41036 6.3401 6.27307 6.38624 6.18251C6.50608 5.94731 6.69731 5.75609 6.93251 5.63624C7.02307 5.5901 7.16035 5.54822 7.44748 5.52476C7.74335 5.50058 8.12757 5.5 8.7 5.5H14.05C14.6224 5.5 15.0066 5.50058 15.3025 5.52476C15.5896 5.54822 15.7269 5.5901 15.8175 5.63624C16.0527 5.75609 16.2439 5.94731 16.3638 6.18251C16.4099 6.27307 16.4518 6.41036 16.4752 6.69748C16.4994 6.99336 16.5 7.37757 16.5 7.95V9.3C16.5 9.87243 16.4994 10.2566 16.4752 10.5525C16.4518 10.8396 16.4099 10.9769 16.3638 11.0675C16.2439 11.3027 16.0527 11.4939 15.8175 11.6138C15.7508 11.6478 15.6587 11.6794 15.5 11.7031V10.6695C15.5 10.1354 15.5 9.68955 15.4703 9.32533C15.4392 8.94545 15.3721 8.58879 15.2003 8.25153C14.9366 7.73408 14.5159 7.31339 13.9985 7.04973C13.6612 6.87789 13.3046 6.81078 12.9247 6.77974C12.5604 6.74998 12.1146 6.74999 11.5804 6.75Z" fill="#4A4A4A"/>
</svg>

<svg viewBox="0 0 20 20" xmlns="http://www.w3.org/2000/svg"><path fill-rule="evenodd" d="M14.08 4h-5.41c-.535 0-.98 0-1.345.03-.38.03-.736.098-1.073.27a2.75 2.75 0 0 0-1.202 1.202c-.172.337-.24.693-.27 1.073-.005.062-.01.126-.013.192l-.192.013c-.38.03-.736.098-1.073.27a2.75 2.75 0 0 0-1.202 1.202c-.172.337-.24.693-.27 1.073-.03.365-.03.81-.03 1.345v1.41c0 .535 0 .98.03 1.345.03.38.098.736.27 1.073a2.75 2.75 0 0 0 1.202 1.202c.337.172.693.24 1.073.27.365.03.81.03 1.345.03h5.66c.535 0 .98 0 1.345-.03.38-.03.736-.098 1.073-.27a2.751 2.751 0 0 0 1.202-1.201c.172-.338.24-.694.27-1.074a7.14 7.14 0 0 0 .014-.21c.358-.033.695-.102 1.014-.265a2.751 2.751 0 0 0 1.202-1.201c.172-.338.24-.694.27-1.074.03-.365.03-.81.03-1.344v-1.411c0-.535 0-.98-.03-1.345-.03-.38-.098-.736-.27-1.073a2.75 2.75 0 0 0-1.201-1.202c-.338-.172-.694-.24-1.074-.27-.365-.03-.81-.03-1.345-.03Zm-3.094 10.5h.564c.572 0 .957 0 1.252-.025.288-.023.425-.065.516-.111a1.25 1.25 0 0 0 .546-.546c.046-.091.088-.228.111-.515.024-.296.025-.68.025-1.253v-1.35c0-.572 0-.957-.025-1.253-.023-.287-.065-.424-.111-.514a1.25 1.25 0 0 0-.546-.547c-.091-.046-.228-.088-.515-.111-.296-.024-.68-.025-1.253-.025h-.725c.57.82.925 1.972.925 3.25 0 1.152-.289 2.204-.764 3Zm-4.311-6.25c-.57.82-.925 1.972-.925 3.25 0 1.152.289 2.204.764 3h-.564c-.572 0-.957 0-1.253-.025-.287-.023-.424-.065-.514-.111a1.25 1.25 0 0 1-.547-.546c-.046-.091-.088-.228-.111-.515-.024-.296-.025-.68-.025-1.253v-1.35c0-.572 0-.957.025-1.253.023-.287.065-.424.111-.514a1.25 1.25 0 0 1 .547-.547c.09-.046.227-.088.514-.111.296-.024.68-.025 1.253-.025h.725Zm2.075 6.25c-.17 0-.51-.104-.873-.65-.357-.536-.627-1.362-.627-2.35s.27-1.814.627-2.35c.364-.546.702-.65.873-.65.17 0 .51.104.873.65.357.536.627 1.362.627 2.35s-.27 1.814-.627 2.35c-.364.546-.702.65-.873.65Zm2.83-7.75h-5.31l.005-.053c.023-.287.065-.424.111-.514a1.25 1.25 0 0 1 .547-.547c.09-.046.227-.088.514-.111.296-.024.68-.025 1.253-.025h5.35c.572 0 .957 0 1.252.025.288.023.425.065.516.111.235.12.426.311.546.547.046.09.088.227.111.514.024.296.025.68.025 1.253v1.35c0 .572 0 .957-.025 1.252-.023.288-.065.425-.111.516a1.25 1.25 0 0 1-.546.546 1.009 1.009 0 0 1-.318.09v-1.035c0-.534 0-.98-.03-1.344-.03-.38-.098-.736-.27-1.073a2.75 2.75 0 0 0-1.201-1.202c-.338-.172-.694-.24-1.074-.27-.365-.03-.81-.03-1.345-.03Z" fill="#5C5F62"/></svg>
